public/assets/google.svg

<svg width="50" height="50" viewBox="0 0 50 50" xmlns="http://www.w3.org/2000/svg"><path d="M24.979 28.958v-7.75h19.5c.292 1.313.521 2.542.521 4.271 0 11.896-7.979 20.354-20 20.354C13.5 45.833 4.167 36.5 4.167 25 4.167 13.5 13.5 4.167 25 4.167c5.625 0 10.333 2.062 13.938 5.437l-5.917 5.75c-1.5-1.416-4.125-3.083-8.021-3.083-6.896 0-12.521 5.729-12.521 12.75S18.104 37.771 25 37.771c7.979 0 10.917-5.521 11.458-8.792H24.979v-.021Z" fill="#4acd8d"/></svg>

<svg width="50" height="50" viewBox="0 0 50 50" fill="none" xmlns="http://www.w3.org/2000/svg">
<path d="M24.979 28.958V21.208H44.479C44.771 22.521 45 23.75 45 25.479C45 37.375 37.021 45.833 25 45.833C13.5 45.833 4.167 36.5 4.167 25C4.167 13.5 13.5 4.16699 25 4.16699C30.625 4.16699 35.333 6.22899 38.938 9.60399L33.021 15.354C31.521 13.938 28.896 12.271 25 12.271C18.104 12.271 12.479 18 12.479 25.021C12.479 32.042 18.104 37.771 25 37.771C32.979 37.771 35.917 32.25 36.458 28.979H24.979V28.958Z" fill="#8B5CF6"/>
</svg>
